public/feature03.svg

<svg width="61" height="61" viewBox="0 0 61 61" fill="none" xmlns="http://www.w3.org/2000/svg">
<g clip-path="url(#clip0_6511_1837)">
<g clip-path="url(#clip1_6511_1837)">
<g clip-path="url(#clip2_6511_1837)">
<mask id="mask0_6511_1837" style="mask-type:luminance" maskUnits="userSpaceOnUse" x="0" y="0" width="61" height="61">
<path d="M60.1292 0.919922H0.824219V60.225H60.1292V0.919922Z" fill="white"/>
</mask>
<g mask="url(#mask0_6511_1837)">
<path d="M40.784 58.3484C49.305 58.3484 56.2126 51.4407 56.2126 42.9198C56.2126 34.3988 49.305 27.4912 40.784 27.4912C32.2631 27.4912 25.3555 34.3988 25.3555 42.9198C25.3555 51.4407 32.2631 58.3484 40.784 58.3484Z" fill="#FDC040"/>
<path d="M43.9066 26.5926V15.3693C43.9066 15.048 43.7583 14.7512 43.5483 14.5164L30.9654 1.30316C30.7305 1.05611 30.3966 0.919922 30.0632 0.919922H10.1133C6.43018 0.919922 3.48828 3.92336 3.48828 7.60685V45.3308C3.48828 49.0143 6.43018 51.9684 10.1133 51.9684H25.8607C28.8392 56.9125 34.2534 60.225 40.4209 60.225C49.7901 60.225 57.4412 52.611 57.4412 43.2296C57.4539 35.0346 51.57 28.1871 43.9066 26.5926ZM31.2993 5.25857L39.7413 14.1454H34.2657C32.6341 14.1454 31.2993 12.7984 31.2993 11.1668V5.25857ZM10.1133 49.4962C7.80205 49.4962 5.96053 47.642 5.96053 45.3308V7.60685C5.96053 5.28301 7.80205 3.39217 10.1133 3.39217H28.827V11.1668C28.827 14.1702 31.2621 16.6176 34.2657 16.6176H41.4345V26.2709C41.0638 26.2587 40.767 26.2216 40.4458 26.2216C36.132 26.2216 32.1644 27.878 29.1732 30.4738H13.4755C12.7954 30.4738 12.2393 31.0299 12.2393 31.7094C12.2393 32.3895 12.7954 32.9456 13.4755 32.9456H26.8742C25.9964 34.1817 25.267 35.4179 24.6987 36.7775H13.4755C12.7954 36.7775 12.2393 37.3336 12.2393 38.0136C12.2393 38.6932 12.7954 39.2497 13.4755 39.2497H23.8952C23.5862 40.4859 23.4255 41.8578 23.4255 43.2296C23.4255 45.4543 23.8581 47.6547 24.6368 49.5089H10.1133V49.4962ZM40.4336 57.7654C32.4241 57.7654 25.91 51.2513 25.91 43.2418C25.91 35.2324 32.4114 28.7183 40.4336 28.7183C48.4552 28.7183 54.9567 35.2324 54.9567 43.2418C54.9567 51.2513 48.4431 57.7654 40.4336 57.7654Z" fill="#3BB77E"/>
<path d="M13.4744 26.753H25.9953C26.6754 26.753 27.2315 26.1965 27.2315 25.5169C27.2315 24.8369 26.6754 24.2808 25.9953 24.2808H13.4744C12.7943 24.2808 12.2383 24.8369 12.2383 25.5169C12.2383 26.1965 12.7943 26.753 13.4744 26.753Z" fill="#3BB77E"/>
<path d="M40.0265 35.6155C40.1256 35.6399 40.2243 35.6526 40.3234 35.6526C40.4469 35.6526 40.5582 35.6399 40.6695 35.6028C42.301 35.739 43.5743 37.0987 43.5743 38.7551C43.5743 39.4347 44.1304 39.9908 44.81 39.9908C45.49 39.9908 46.0461 39.4347 46.0461 38.7551C46.0461 36.0358 44.1182 33.7613 41.5594 33.2297V32.4387C41.5594 31.7587 41.003 31.2026 40.3234 31.2026C39.6433 31.2026 39.0872 31.7587 39.0872 32.4387V33.2794C36.615 33.8726 34.7734 36.11 34.7734 38.7551C34.7734 41.8699 37.3072 44.3914 40.4098 44.3914C42.1527 44.3914 43.5743 45.8126 43.5743 47.5555C43.5743 49.2984 42.1648 50.7322 40.4098 50.7322C38.6669 50.7322 37.2457 49.3106 37.2457 47.5677C37.2457 46.8881 36.6892 46.3316 36.0096 46.3316C35.3296 46.3316 34.7734 46.8881 34.7734 47.5677C34.7734 50.2255 36.615 52.4502 39.0872 53.0434V54.3166C39.0872 54.9967 39.6433 55.5528 40.3234 55.5528C41.003 55.5528 41.5594 54.9967 41.5594 54.3166V53.0805C44.1182 52.5488 46.0461 50.2748 46.0461 47.5555C46.0461 44.4408 43.5123 41.9192 40.4098 41.9192C38.6669 41.9192 37.2457 40.4976 37.2457 38.7551C37.2457 37.148 38.4569 35.801 40.0265 35.6155Z" fill="#3BB77E"/>
</g>
</g>
</g>
</g>
<defs>
<clipPath id="clip0_6511_1837">
<rect width="60" height="60" fill="white" transform="translate(0.5 0.919922)"/>
</clipPath>
<clipPath id="clip1_6511_1837">
<rect width="60" height="60" fill="white" transform="translate(0.5 0.919922)"/>
</clipPath>
<clipPath id="clip2_6511_1837">
<rect width="60" height="60" fill="white" transform="translate(0.5 0.919922)"/>
</clipPath>
</defs>
</svg>

<svg xmlns="http://www.w3.org/2000/svg" width="61" height="61" fill="none"><g clip-path="url(#a)"><g clip-path="url(#b)"><g clip-path="url(#c)"><mask id="d" width="61" height="61" x="0" y="0" maskUnits="userSpaceOnUse" style="mask-type:luminance"><path fill="#fff" d="M60.13.92H.823v59.305H60.13z"/></mask><g mask="url(#d)"><path fill="#FDC040" d="M40.784 58.348c8.521 0 15.429-6.907 15.429-15.428S49.305 27.49 40.784 27.49c-8.52 0-15.428 6.908-15.428 15.429 0 8.52 6.907 15.428 15.428 15.428"/><path fill="#3BB77E" d="M43.907 26.593V15.369c0-.321-.149-.618-.359-.853L30.965 1.303a1.25 1.25 0 0 0-.902-.383h-19.95C6.43.92 3.488 3.923 3.488 7.607V45.33a6.605 6.605 0 0 0 6.625 6.637h15.748c2.978 4.944 8.392 8.257 14.56 8.257 9.37 0 17.02-7.614 17.02-16.995.013-8.195-5.871-15.043-13.534-16.637M31.299 5.259l8.442 8.886h-5.475c-1.632 0-2.967-1.347-2.967-2.978zM10.113 49.496a4.14 4.14 0 0 1-4.152-4.165V7.607c0-2.324 1.841-4.215 4.152-4.215h18.714v7.775c0 3.003 2.435 5.45 5.439 5.45h7.169v9.654c-.371-.012-.668-.05-.99-.05-4.313 0-8.28 1.657-11.272 4.253H13.476a1.24 1.24 0 0 0-1.237 1.235c0 .68.556 1.237 1.236 1.237h13.4c-.879 1.236-1.608 2.472-2.176 3.832H13.475a1.24 1.24 0 0 0-1.236 1.236c0 .68.556 1.236 1.236 1.236h10.42a16.6 16.6 0 0 0-.47 3.98c0 2.224.433 4.425 1.212 6.279H10.113zm30.32 8.27c-8.009 0-14.523-6.515-14.523-14.524s6.501-14.524 14.524-14.524c8.021 0 14.523 6.514 14.523 14.524s-6.514 14.523-14.523 14.523"/><path fill="#3BB77E" d="M13.474 26.753h12.521a1.24 1.24 0 0 0 1.236-1.236 1.24 1.24 0 0 0-1.236-1.236h-12.52a1.24 1.24 0 0 0-1.237 1.236c0 .68.556 1.236 1.236 1.236M40.027 35.616a1.24 1.24 0 0 0 .642-.013 3.165 3.165 0 0 1 2.905 3.152c0 .68.556 1.236 1.236 1.236a1.24 1.24 0 0 0 1.236-1.236 5.65 5.65 0 0 0-4.487-5.525v-.791a1.24 1.24 0 0 0-1.236-1.236 1.24 1.24 0 0 0-1.236 1.236v.84a5.645 5.645 0 0 0-4.314 5.476 5.64 5.64 0 0 0 5.637 5.636 3.17 3.17 0 0 1 0 6.341 3.17 3.17 0 0 1-3.164-3.164 1.24 1.24 0 0 0-1.236-1.236 1.24 1.24 0 0 0-1.237 1.236 5.634 5.634 0 0 0 4.314 5.475v1.274c0 .68.556 1.236 1.236 1.236a1.24 1.24 0 0 0 1.236-1.236V53.08a5.65 5.65 0 0 0 4.487-5.526 5.64 5.64 0 0 0-5.636-5.636 3.17 3.17 0 0 1-3.164-3.164 3.166 3.166 0 0 1 2.78-3.14"/></g></g></g></g><defs><clipPath id="a"><path fill="#fff" d="M.5.92h60v60H.5z"/></clipPath><clipPath id="b"><path fill="#fff" d="M.5.92h60v60H.5z"/></clipPath><clipPath id="c"><path fill="#fff" d="M.5.92h60v60H.5z"/></clipPath></defs></svg>
